!!!OTL: HERZ MIS HERZ WARUM SO TRURIG
!!!ARE: Europa, Mitteleuropa, Schweiz
!!!ARD: Europa%Mitteleuropa%Schweiz@
!!!ARL: 47.00/8.00@
!!!SCT: B0530
!!!YEM: Copyright 1995, estate of Helmut Schaffrath.
**kern
*ICvox
*Ivox
*M6/8
*k[b-e-]
*g:
=1
{4b-
8b-
4a
8a
=2
4g
8a
4f#
8d}
=3
{4b-
8b-
4a
8a
=4
4g
8a
4.f#}
=5
{4b
8b
4cc
8cc
=6
4cc
16ee
16dd
4b
8g}
=7
{4dd
8b
4a
16ee
16cc
=8
4b
8a
4.g}
==
!!!AGN: Wander -, Heimat - Lied
!! modulierend
!!!ONB: ESAC (Essen Associative Code) Database: BOEHME
!!!AMT: compound duple
!!!AIN: vox
!!!EED: Helmut Schaffrath
!!!EEV: 1.0
*-
